X: 22
T:Johnny's Wedding
M:4/4
L:1/8
C:Trad
S:Gerald Trimble's "First Flight"
R:Reel
K:Bb
GA|:(3BAG dA BGGB|AFcF AFFA|(3BAG dA BGGB|AF (3D=E^F G2 GA|
(3BAG dA BGGB|AFcF AFFA|GBAc Bdce|1dg^fa g2 GA:|2dg^fa g2 ga|
|:(3bag ag fdde|fdcB AFFF|GBdf bagf|dg^fa g2 ga|
(3bag ag fdde|fdcB AFFA|GBAc Bdce|1dg^fa g2 GA:|2dg^fa g2 g2||

